icons/twitter.svg

<svg height="32" viewBox="0 0 32 32" width="32" xmlns="http://www.w3.org/2000/svg"><path d="m10.06336 29.0018804c12.07552 0 18.68032-10.00448 18.68032-18.68032 0-.28416 0-.56704004-.0192-.84864004 1.2849041-.9293941 2.394055-2.08015437 3.27552-3.3984-1.1982348.53094627-2.4693385.87914067-3.77088 1.03296 1.3705523-.82050297 2.3963181-2.11101186 2.8864-3.63136-1.2887584.7647428-2.698693 1.30369539-4.16896 1.5936-2.0350941-2.16397532-5.2688392-2.69361589-7.8879369-1.29192969s-3.9721911 4.38610662-3.3005431 7.27976973c-5.2788535-.2646406-10.197151-2.75798625-13.53088-6.85952004-1.74256287 2.99986525-.85249551 6.83758014 2.03264 8.76416004-1.04481126-.0309664-2.0668424-.3128152-2.97984-.82176v.0832c.00085521 3.125239 2.2038419 5.817005 5.2672 6.43584-.96656692.2636032-1.98069685.3021367-2.96448.11264.86009335 2.6744612 3.32489544 4.5066033 6.13376 4.55936-2.32481915 1.8271128-5.19672383 2.8189795-8.1536 2.816-.52236343-.0010029-1.0442188-.0326305-1.56288-.09472 3.00241402 1.926754 6.49588915 2.9487576 10.06336 2.944" fill="#68737a" fill-rule="evenodd"/></svg>

<svg xmlns="http://www.w3.org/2000/svg" width="32" height="32" viewBox="0 0 32 32">
  <path fill="#68737A" fill-rule="evenodd" d="M10.06336,29.0018804 C22.13888,29.0018804 28.74368,18.9974004 28.74368,10.3215604 C28.74368,10.0374004 28.74368,9.75452036 28.72448,9.47292036 C30.0093841,8.54352626 31.118535,7.39276599 32,6.07452036 C30.8017652,6.60546663 29.5306615,6.95366103 28.22912,7.10748036 C29.5996723,6.28697739 30.6254381,4.9964685 31.11552,3.47612036 C29.8267616,4.24086316 28.416827,4.77981575 26.94656,5.06972036 C24.9114659,2.90574504 21.6777208,2.37610447 19.0586231,3.77779067 C16.4395254,5.17947687 15.086432,8.16389729 15.75808,11.0575604 C10.4792265,10.7929198 5.560929,8.29957415 2.2272,4.19804036 C0.484637128,7.19790561 1.37470449,11.0356205 4.25984,12.9622004 C3.21502874,12.931234 2.1929976,12.6493852 1.28,12.1404404 L1.28,12.2236404 C1.28085521,15.3488794 3.4838419,18.0406454 6.5472,18.6594804 C5.58063308,18.9230836 4.56650315,18.9616171 3.58272,18.7721204 C4.44281335,21.4465816 6.90761544,23.2787237 9.71648,23.3314804 C7.39166085,25.1585932 4.51975617,26.1504599 1.56288,26.1474804 C1.04051657,26.1464775 0.518661204,26.1148499 0,26.0527604 C3.00241402,27.9795144 6.49588915,29.001518 10.06336,28.9967604"/>
</svg>
